packages/icons/raw/imported/DevicesBluetooth.svg

<svg width="32" height="32" viewBox="0 0 32 32" fill="none" xmlns="http://www.w3.org/2000/svg">
<path d="M23 20.9659L23.262 21.3917C23.4068 21.3027 23.4964 21.1462 23.4999 20.9763C23.5034 20.8063 23.4204 20.6463 23.2794 20.5513L23 20.9659ZM15.6316 25.5H15.1316C15.1316 25.6811 15.2295 25.8481 15.3877 25.9365C15.5458 26.0248 15.7393 26.0208 15.8936 25.9258L15.6316 25.5ZM15.6316 6.5L15.8785 6.06524C15.7237 5.97732 15.5339 5.97833 15.3801 6.06787C15.2262 6.15741 15.1316 6.322 15.1316 6.5L15.6316 6.5ZM23 10.6853L23.2925 11.0908C23.4306 10.9912 23.5085 10.8282 23.4993 10.6583C23.4901 10.4883 23.395 10.3346 23.2469 10.2506L23 10.6853ZM9.29894 10.6529C9.07759 10.4878 8.76431 10.5334 8.59921 10.7547C8.43411 10.9761 8.47971 11.2894 8.70106 11.4545L9.29894 10.6529ZM8.73879 19.6366C8.50333 19.7809 8.42939 20.0887 8.57366 20.3242C8.71792 20.5597 9.02575 20.6336 9.26121 20.4893L8.73879 19.6366ZM22.738 20.5401L15.3695 25.0742L15.8936 25.9258L23.262 21.3917L22.738 20.5401ZM16.1316 25.5L16.1316 16H15.1316L15.1316 25.5H16.1316ZM16.1316 16L16.1316 6.5L15.1316 6.5L15.1316 16H16.1316ZM23.2794 20.5513L15.911 15.5854L15.3521 16.4146L22.7206 21.3805L23.2794 20.5513ZM15.9241 16.4055L23.2925 11.0908L22.7075 10.2798L15.3391 15.5945L15.9241 16.4055ZM23.2469 10.2506L15.8785 6.06524L15.3846 6.93476L22.7531 11.1201L23.2469 10.2506ZM15.9305 15.5992L9.29894 10.6529L8.70106 11.4545L15.3326 16.4008L15.9305 15.5992ZM9.26121 20.4893L15.8928 16.4263L15.3704 15.5737L8.73879 19.6366L9.26121 20.4893Z" fill="black"/>
</svg>

<svg width="32" height="32" fill="none" xmlns="http://www.w3.org/2000/svg"><path d="m23 20.966.262.426a.5.5 0 0 0 .017-.84l-.279.414ZM15.632 25.5h-.5a.5.5 0 0 0 .762.426l-.262-.426Zm0-19 .247-.435a.5.5 0 0 0-.747.435h.5ZM23 10.685l.293.406a.5.5 0 0 0-.046-.84l-.247.434Zm-13.701-.032a.5.5 0 0 0-.598.801l.598-.801Zm-.56 8.984a.5.5 0 0 0 .522.852l-.522-.852Zm13.999.903-7.368 4.534.524.852 7.368-4.534-.524-.852Zm-6.606 4.96V16h-1v9.5h1Zm0-9.5V6.5h-1V16h1Zm7.147 4.551-7.368-4.966-.559.83 7.369 4.966.558-.83Zm-7.355-4.145 7.369-5.315-.585-.811-7.369 5.315.585.81Zm7.323-6.155-7.368-4.186-.494.87 7.368 4.185.494-.87Zm-7.316 5.348-6.632-4.946-.598.801 6.632 4.947.598-.802Zm-6.67 4.89 6.632-4.063-.523-.852-6.631 4.063.522.852Z" fill="#000"/></svg>
